X: 1
T: Kerfunken, The
C: Hammy Hamilton
O: Ireland
M: 6/8
L: 1/8
R: Jig
Q:1/4=170
K:D
Z: ABC transcription by Verge Roller
|: E | "D" FGF FED | "D" FGA "G" Bcd | "D" AFA dAF | "A" E2 E EDE |
"D" FGF FED | "D" FGA "G" Bcd | "D" AFA dAF | "A" EFE "D" D2 :|
|: A | "D" d2 d def | "Bm" B2 B BAB | "D" d2 d def | "D" fed "A" e2 A |
"D" d2 d def | "Bm" B2 B BdB | "D" AFA dAF | "A" EFE "D" D2 :|
r: 32
